www/assets/icons/motion_photos_pause.svg

<svg xmlns="http://www.w3.org/2000/svg" width="24" height="24" viewBox="0 0 24 24" fill='currentColor'><path d="m2.88 7.88 1.54 1.54C4.15 10.23 4 11.1 4 12c0 4.41 3.59 8 8 8s8-3.59 8-8-3.59-8-8-8c-.9 0-1.77.15-2.58.42L7.89 2.89C9.15 2.32 10.54 2 12 2c5.52 0 10 4.48 10 10s-4.48 10-10 10S2 17.52 2 12c0-1.47.32-2.86.88-4.12M7 5.5C7 6.33 6.33 7 5.5 7S4 6.33 4 5.5 4.67 4 5.5 4 7 4.67 7 5.5m5 .5c-3.31 0-6 2.69-6 6s2.69 6 6 6 6-2.69 6-6-2.69-6-6-6m-1 9H9V9h2zm4 0h-2V9h2z"/></svg>

<svg width="24" height="24" viewBox="0 0 24 24" xmlns="http://www.w3.org/2000/svg" fill='currentColor'><path d="M2.88 7.88L4.42 9.42C4.15 10.23 4 11.1 4 12C4 16.41 7.59 20 12 20C16.41 20 20 16.41 20 12C20 7.59 16.41 4 12 4C11.1 4 10.23 4.15 9.42 4.42L7.89 2.89C9.15 2.32 10.54 2 12 2C17.52 2 22 6.48 22 12C22 17.52 17.52 22 12 22C6.48 22 2 17.52 2 12C2 10.53 2.32 9.14 2.88 7.88ZM7 5.5C7 6.33 6.33 7 5.5 7C4.67 7 4 6.33 4 5.5C4 4.67 4.67 4 5.5 4C6.33 4 7 4.67 7 5.5ZM12 6C8.69 6 6 8.69 6 12C6 15.31 8.69 18 12 18C15.31 18 18 15.31 18 12C18 8.69 15.31 6 12 6ZM11 15H9V9H11V15ZM15 15H13V9H15V15Z"/></svg>
